X:1311
T:Beggar Girl,The . JC.063
M:6/8
L:1/8
Q:80
S:John Clare,Poet,Helpston. (1793-1864)
R:Air
O:England
A:Northamptonshire
N:
Z:P Headford
K:G
d>cB d>cB|A>GAB2z|d>cB d>cB|A>GAG2d|!
d>cB d>cB|A>GA B>cd|d>cB d>cB|{B}A>GA G2z:|!
|:DGB DAc|DcB {B}AGA|DGFE2c3/4c/4|BGFd2z|!
d>cB d>cB|A>GA B>cd|d>cB efg|B>cAG2z:|]
W:Song text exists. See Deacon.


